!!!OTL: 200. Sher
!!!Genre:	Sher
!!!Mode:	Minor
!!!Listening/dance:	dance
!!!One_Mode:	yes
**kern
*thru
*I"P1
*clefG2
*k[b-e-]
*g:
*M2/4
*>A
=1
!LO:TX:a:i:t=G-minor
4dd
8ggL
16ffL
16ee-JJ
=2
4.dd
16ccLL
16b-JJ
=3
8.ccL
16b-Jk
16ddLL
16cc
16b-
16aJJ
*>A1
=4
8gL
8b-
8dd
8ggJ
*>A
=1
!LO:TX:a:i:t=G-minor
4dd
8ggL
16ffL
16ee-JJ
=2
4.dd
16ccLL
16b-JJ
=3
8.ccL
16b-Jk
16ddLL
16cc
16b-
16aJJ
*>A2
=5:|!
4.g
*>B
8dd
=6!|:
!!!Begin-Modulation
*g:
!LO:TX:a:i:t=G-minor
8.ccL
16b-Jk
16ddLL
16cc
16b-
16aJJ
=16
8gL
8b-
8dd
8ggJ
=17
8.ccL
16b-Jk
16ddLL
16cc
16b-
16aJJ
=18
4g
4gg
=19
(8.ccL
16b-Jk)
16ddLL
16cc
16b-
16aJJ
=20
8gL
8b-
8dd
8ggJ
=21
8.ccL
16b-Jk
16ddLL
16cc
16b-
16aJJ
=22
2g
=:|!
*>C
8g
=15!|:
!LO:TX:a:i:t=G-minor
8.ccL
16b-Jk
16ddLL
16cc
16b-
16aJJ
=16
8gL
8b-
8dd
8ggJ
=17
8.ccL
16b-Jk
16ddLL
16cc
16b-
16aJJ
=18
4g
4gg
=19
(8.ccL
16b-Jk)
16ddLL
16cc
16b-
16aJJ
=20
8gL
8b-
8dd
8ggJ
=21
8.ccL
16b-Jk
16ddLL
16cc
16b-
16aJJ
=22
2g
=:|!
*-
